images/application.svg

<svg enable-background="new 0 0 490 490" height="512" viewBox="0 0 490 490" width="512" xmlns="http://www.w3.org/2000/svg"><path d="m69.4 0v490h351.2v-490zm113.6 47.1c15.9 0 28.8 12.4 28.8 27.6s-12.8 27.6-28.8 27.6-28.8-12.4-28.8-27.6 12.8-27.6 28.8-27.6zm-80.1 136.1c1.6-36.9 36.6-65.7 80.1-65.7s78.6 28.8 80.1 65.7c0 4.3-2.3 8.2-5.8 9.7-21.8 10.1-47.4 15.6-74.3 15.6-26.4 0-52.1-5.4-74.3-15.6-3.5-2-5.8-5.8-5.8-9.7zm266 248.9h-247.4c-5.8 0-10.1-4.7-10.1-10.1 0-5.8 4.7-10.1 10.1-10.1h246.9c5.8 0 10.1 4.7 10.1 10.1.5 5.8-4.2 10.1-9.6 10.1zm0-71.6h-247.4c-5.8 0-10.1-4.7-10.1-10.1 0-5.8 4.7-10.1 10.1-10.1h246.9c5.8 0 10.1 4.7 10.1 10.1.5 5.4-4.2 10.1-9.6 10.1zm0-71.9h-247.4c-5.8 0-10.1-4.7-10.1-10.1 0-5.8 4.7-10.1 10.1-10.1h246.9c5.8 0 10.1 4.7 10.1 10.1.5 5.4-4.2 10.1-9.6 10.1z" fill="#a0abbf"/></svg>

<?xml version="1.0"?>
<svg xmlns="http://www.w3.org/2000/svg" xmlns:xlink="http://www.w3.org/1999/xlink" version="1.1" id="Capa_1" x="0px" y="0px" viewBox="0 0 490 490" style="enable-background:new 0 0 490 490;" xml:space="preserve" width="512px" height="512px" class=""><g><g>
	<g>
		<g>
			<path d="M69.4,0v490h351.2V0H69.4z M183,47.1c15.9,0,28.8,12.4,28.8,27.6S199,102.3,183,102.3s-28.8-12.4-28.8-27.6     S167,47.1,183,47.1z M102.9,183.2c1.6-36.9,36.6-65.7,80.1-65.7s78.6,28.8,80.1,65.7c0,4.3-2.3,8.2-5.8,9.7     c-21.8,10.1-47.4,15.6-74.3,15.6c-26.4,0-52.1-5.4-74.3-15.6C105.2,190.9,102.9,187.1,102.9,183.2z M368.9,432.1H121.5     c-5.8,0-10.1-4.7-10.1-10.1c0-5.8,4.7-10.1,10.1-10.1h246.9c5.8,0,10.1,4.7,10.1,10.1C379,427.8,374.3,432.1,368.9,432.1z      M368.9,360.5H121.5c-5.8,0-10.1-4.7-10.1-10.1c0-5.8,4.7-10.1,10.1-10.1h246.9c5.8,0,10.1,4.7,10.1,10.1     C379,355.8,374.3,360.5,368.9,360.5z M368.9,288.6H121.5c-5.8,0-10.1-4.7-10.1-10.1c0-5.8,4.7-10.1,10.1-10.1h246.9     c5.8,0,10.1,4.7,10.1,10.1C379,283.9,374.3,288.6,368.9,288.6z" data-original="#000000" class="active-path" data-old_color="#a0abbf" fill="#a0abbf"/>
		</g>
	</g>
</g></g> </svg>
